src/assets/icons/download.svg

<svg widh="100%" height="100%" viewBox="0 0 24 24" fill="current"
  xmlns="http://www.w3.org/2000/svg">
  <path fill-rule="evenodd" clip-rule="evenodd" d="M3 14C3.55228 14 4 14.4477 4 15V19C4 19.2652 4.10534 19.5195 4.29292 19.7071L4.29292 19.7071C4.48044 19.8946 4.73477 20 5 20H19C19.2652 20 19.5195 19.8947 19.7071 19.7071C19.8947 19.5195 20 19.2652 20 19V15C20 14.4477 20.4477 14 21 14C21.5523 14 22 14.4477 22 15V19C22 19.7956 21.6839 20.5587 21.1213 21.1213C20.5587 21.6839 19.7956 22 19 22H5C4.20437 22 3.44128 21.684 2.87866 21.1213C2.31608 20.5587 2 19.7956 2 19V15C2 14.4477 2.44772 14 3 14Z"/>
  <path fill-rule="evenodd" clip-rule="evenodd" d="M6.29289 9.29289C6.68342 8.90237 7.31658 8.90237 7.70711 9.29289L12 13.5858L16.2929 9.29289C16.6834 8.90237 17.3166 8.90237 17.7071 9.29289C18.0976 9.68342 18.0976 10.3166 17.7071 10.7071L12.7071 15.7071C12.3166 16.0976 11.6834 16.0976 11.2929 15.7071L6.29289 10.7071C5.90237 10.3166 5.90237 9.68342 6.29289 9.29289Z"/>
  <path fill-rule="evenodd" clip-rule="evenodd" d="M12 2C12.5523 2 13 2.44772 13 3V15C13 15.5523 12.5523 16 12 16C11.4477 16 11 15.5523 11 15V3C11 2.44772 11.4477 2 12 2Z"/>
</svg>

<svg xmlns="http://www.w3.org/2000/svg" fill="currentColor" viewBox="0 0 24 24">
  <path fill-rule="evenodd" d="M3 14a1 1 0 0 1 1 1v4a1 1 0 0 0 1 1h14a1 1 0 0 0 1-1v-4a1 1 0 1 1 2 0v4a3 3 0 0 1-3 3H5a3 3 0 0 1-3-3v-4a1 1 0 0 1 1-1Z" clip-rule="evenodd"/>
  <path fill-rule="evenodd" d="M6.293 9.293a1 1 0 0 1 1.414 0L12 13.586l4.293-4.293a1 1 0 1 1 1.414 1.414l-5 5a1 1 0 0 1-1.414 0l-5-5a1 1 0 0 1 0-1.414Z" clip-rule="evenodd"/>
  <path fill-rule="evenodd" d="M12 2a1 1 0 0 1 1 1v12a1 1 0 1 1-2 0V3a1 1 0 0 1 1-1Z" clip-rule="evenodd"/>
</svg>
